public/images/logos/zapa.svg

<svg xmlns="http://www.w3.org/2000/svg" width="668" height="305" fill="none"><path fill="#000" d="M512.21 302.26v-43.32l32.42 33.97v-32.22h4.61v43.44l-32.41-33.97v32.1h-4.62Zm-10.72 0h-4.61v-41.58h4.61v41.58Zm-22.25-16.08-6.98-16.64-7.1 16.64h14.09-.01Zm-15.89 4.36-4.99 11.72h-5.11l19.14-43.57 18.64 43.57h-5.11l-4.86-11.72h-17.71Zm-60.47 11.72 6.92-43.88 15.96 35.09 16.27-35.16 6.48 43.95h-4.74l-3.93-28.92-14.15 30.67-13.96-30.67-4.11 28.92h-4.74Zm-21.57-37.21h-16.95v12.34h16.46v4.36h-16.46v16.14h16.95v4.36h-21.57v-41.58h21.57v4.38Zm-56.35 32.85h4.05c3.3 0 7.85-.38 11.91-3.74 3.11-2.62 5.61-6.73 5.61-12.65 0-9.97-6.98-16.46-17.51-16.46h-4.05v32.85h-.01Zm-4.61-37.22h8.48c4.18 0 10.1.44 15.33 4.86 3.8 3.18 7.11 8.48 7.11 15.96 0 8.73-4.3 13.4-7.29 15.96-3.8 3.24-7.79 4.8-15.21 4.8h-8.41v-41.58h-.01Zm-47.75 41.58v-43.32l32.42 33.97v-32.22h4.61v43.44l-32.41-33.97v32.1h-4.62Zm-47-20.76c0 9.54 7.54 17.14 16.89 17.14 9.35 0 16.89-7.6 16.89-17.14 0-9.54-7.54-17.14-16.89-17.14-9.35 0-16.89 7.61-16.89 17.14Zm-4.74 0c0-12.4 9.66-21.51 21.63-21.51 11.97 0 21.63 9.1 21.63 21.51 0 12.41-9.6 21.5-21.63 21.5s-21.63-9.16-21.63-21.5Zm-6.23-11.65c-1.31-1.31-3.31-2.87-5.42-3.87-2.18-1-4.74-1.62-7.17-1.62-9.6 0-16.7 7.73-16.7 17.33 0 11.28 9.16 16.95 16.77 16.95 2.81 0 5.55-.81 7.73-1.93 2.37-1.19 4.05-2.74 4.8-3.49v5.74c-4.61 3.3-9.41 4.05-12.53 4.05-12.34 0-21.5-9.35-21.5-21.38S189.9 260 202.36 260c2.49 0 7.29.31 12.28 4.11v5.74h-.01Zm-40.27-4.8h-16.95v12.34h16.46v4.36h-16.46v16.14h16.95v4.36h-21.57v-41.58h21.57v4.38Zm-35.28 3.86c-.56-1.12-1.49-2.37-2.43-3.12-.81-.62-2.31-1.43-4.68-1.43-4.11 0-6.98 2.56-6.98 6.42 0 1.62.44 2.56 1.56 3.61 1.25 1.25 2.81 1.93 4.36 2.62l3.99 1.75c2.43 1.06 4.67 2.18 6.42 3.93 2.12 2.12 2.99 4.55 2.99 7.54 0 7.67-5.67 12.78-13.15 12.78-2.74 0-6.17-.56-9.04-3.37-2.06-1.99-3.31-4.86-3.87-7.36l4.49-1.24c.31 2.18 1.31 4.05 2.49 5.3 1.81 1.81 3.87 2.31 5.98 2.31 5.67 0 8.35-4.05 8.35-8.23 0-1.87-.56-3.49-2.06-4.86-1.18-1.12-2.81-1.87-4.99-2.87l-3.74-1.75c-1.62-.75-3.68-1.62-5.55-3.43-1.81-1.75-2.87-3.68-2.87-6.79 0-6.42 4.92-10.72 11.66-10.72 2.55 0 4.61.5 6.67 1.87 1.68 1.12 3.12 2.81 4.05 4.62l-3.68 2.43.03-.01Zm461.89-150.73-26.66-67.37-26.67 67.37h53.33Zm10.67 29.76h-75.51l-16.56 39.3h-39.58L560.55.02h28.63l78.31 187.22h-39.3l-16.56-39.3h.01ZM404.2 86.46h14.88c7.02 0 16 0 23.86-5.9 6.74-5.33 10.11-13.75 10.11-21.89 0-10.39-5.05-17.4-10.38-21.33-7.58-5.33-17.13-5.9-25.83-5.9h-12.63v55.02h-.01ZM422.17.01c21.05 0 35.65 2.24 49.4 14.31 15.16 13.47 19.09 31.72 19.09 45.19 0 7.3-1.12 27.51-15.44 41.82-10.38 10.38-25.82 16.56-47.44 16.56H404.2v69.33h-36.49V0h54.45l.01.01ZM279.3 118.18l-26.66-67.37-26.67 67.37h53.33Zm10.67 29.76h-75.51l-16.56 39.3h-39.58L238.88.02h28.63l78.32 187.22h-39.3l-16.56-39.3Zm-142.88 7.86v31.44H0L90.94 31.45H14.31V.01h137.26L60.62 155.8h86.47Z"/></svg>

<svg width="668" height="305" viewBox="0 0 668 305" fill="none" xmlns="http://www.w3.org/2000/svg">
<path d="M512.21 302.26V258.94L544.63 292.91V260.69H549.24V304.13L516.83 270.16V302.26H512.21ZM501.49 302.26H496.88V260.68H501.49V302.26ZM479.24 286.18L472.26 269.54L465.16 286.18H479.25H479.24ZM463.35 290.54L458.36 302.26H453.25L472.39 258.69L491.03 302.26H485.92L481.06 290.54H463.35ZM402.88 302.26L409.8 258.38L425.76 293.47L442.03 258.31L448.51 302.26H443.77L439.84 273.34L425.69 304.01L411.73 273.34L407.62 302.26H402.88ZM381.31 265.05H364.36V277.39H380.82V281.75H364.36V297.89H381.31V302.25H359.74V260.67H381.31V265.05ZM324.96 297.9H329.01C332.31 297.9 336.86 297.52 340.92 294.16C344.03 291.54 346.53 287.43 346.53 281.51C346.53 271.54 339.55 265.05 329.02 265.05H324.97V297.9H324.96ZM320.35 260.68H328.83C333.01 260.68 338.93 261.12 344.16 265.54C347.96 268.72 351.27 274.02 351.27 281.5C351.27 290.23 346.97 294.9 343.98 297.46C340.18 300.7 336.19 302.26 328.77 302.26H320.36V260.68H320.35ZM272.6 302.26V258.94L305.02 292.91V260.69H309.63V304.13L277.22 270.16V302.26H272.6ZM225.6 281.5C225.6 291.04 233.14 298.64 242.49 298.64C251.84 298.64 259.38 291.04 259.38 281.5C259.38 271.96 251.84 264.36 242.49 264.36C233.14 264.36 225.6 271.97 225.6 281.5ZM220.86 281.5C220.86 269.1 230.52 259.99 242.49 259.99C254.46 259.99 264.12 269.09 264.12 281.5C264.12 293.91 254.52 303 242.49 303C230.46 303 220.86 293.84 220.86 281.5ZM214.63 269.85C213.32 268.54 211.32 266.98 209.21 265.98C207.03 264.98 204.47 264.36 202.04 264.36C192.44 264.36 185.34 272.09 185.34 281.69C185.34 292.97 194.5 298.64 202.11 298.64C204.92 298.64 207.66 297.83 209.84 296.71C212.21 295.52 213.89 293.97 214.64 293.22V298.96C210.03 302.26 205.23 303.01 202.11 303.01C189.77 303.01 180.61 293.66 180.61 281.63C180.61 269.6 189.9 260 202.36 260C204.85 260 209.65 260.31 214.64 264.11V269.85H214.63ZM174.36 265.05H157.41V277.39H173.87V281.75H157.41V297.89H174.36V302.25H152.79V260.67H174.36V265.05ZM139.08 268.91C138.52 267.79 137.59 266.54 136.65 265.79C135.84 265.17 134.34 264.36 131.97 264.36C127.86 264.36 124.99 266.92 124.99 270.78C124.99 272.4 125.43 273.34 126.55 274.39C127.8 275.64 129.36 276.32 130.91 277.01L134.9 278.76C137.33 279.82 139.57 280.94 141.32 282.69C143.44 284.81 144.31 287.24 144.31 290.23C144.31 297.9 138.64 303.01 131.16 303.01C128.42 303.01 124.99 302.45 122.12 299.64C120.06 297.65 118.81 294.78 118.25 292.28L122.74 291.04C123.05 293.22 124.05 295.09 125.23 296.34C127.04 298.15 129.1 298.65 131.21 298.65C136.88 298.65 139.56 294.6 139.56 290.42C139.56 288.55 139 286.93 137.5 285.56C136.32 284.44 134.69 283.69 132.51 282.69L128.77 280.94C127.15 280.19 125.09 279.32 123.22 277.51C121.41 275.76 120.35 273.83 120.35 270.72C120.35 264.3 125.27 260 132.01 260C134.56 260 136.62 260.5 138.68 261.87C140.36 262.99 141.8 264.68 142.73 266.49L139.05 268.92L139.08 268.91ZM600.97 118.18L574.31 50.81L547.64 118.18H600.97ZM611.64 147.94H536.13L519.57 187.24H479.99L560.55 0.02H589.18L667.49 187.24H628.19L611.63 147.94H611.64ZM404.2 86.46H419.08C426.1 86.46 435.08 86.46 442.94 80.56C449.68 75.23 453.05 66.81 453.05 58.67C453.05 48.28 448 41.27 442.67 37.34C435.09 32.01 425.54 31.44 416.84 31.44H404.21V86.46H404.2ZM422.17 0.00999999C443.22 0.00999999 457.82 2.25 471.57 14.32C486.73 27.79 490.66 46.04 490.66 59.51C490.66 66.81 489.54 87.02 475.22 101.33C464.84 111.71 449.4 117.89 427.78 117.89H404.2V187.22H367.71V0H422.16L422.17 0.00999999ZM279.3 118.18L252.64 50.81L225.97 118.18H279.3ZM289.97 147.94H214.46L197.9 187.24H158.32L238.88 0.02H267.51L345.83 187.24H306.53L289.97 147.94ZM147.09 155.8V187.24H0L90.94 31.45H14.31V0.00999999H151.57L60.62 155.8H147.09Z" fill="black"/>
</svg>
